assets/img/plunks/plunk-5.svg

<svg width="60" height="60" viewBox="0 0 60 60" fill="none" xmlns="http://www.w3.org/2000/svg">
<path d="M53.0858 13.2188L30.5858 5.71876C30.204 5.60127 29.7957 5.60127 29.4139 5.71876L6.93737 13.2188H6.89049L6.65612 13.336H6.63268L6.3983 13.4766C6.3983 13.5 6.37487 13.5 6.35143 13.5235L6.16393 13.6875L5.99987 13.875C5.99987 13.8985 5.97643 13.8985 5.97643 13.9219L5.8358 14.1328C5.8358 14.1563 5.8358 14.1563 5.81237 14.1797L5.71862 14.3906L5.6483 14.6484V14.7188C5.62519 14.8106 5.61727 14.9056 5.62487 15V33.75C5.62487 34.2473 5.82241 34.7242 6.17404 35.0758C6.52567 35.4275 7.00258 35.625 7.49987 35.625C7.99715 35.625 8.47406 35.4275 8.82569 35.0758C9.17732 34.7242 9.37487 34.2473 9.37487 33.75V17.6016L17.2499 20.2266C15.7704 22.5947 14.9904 25.3328 14.9999 28.125C15.0007 30.6645 15.6463 33.1622 16.8761 35.384C18.1059 37.6058 19.8796 39.479 22.0311 40.8281C17.5602 42.5195 13.7433 45.5894 11.1327 49.5938C10.8666 50.0145 10.7764 50.523 10.8816 51.0096C10.9869 51.4963 11.279 51.9221 11.6952 52.1953C11.8994 52.3306 12.1285 52.4241 12.3691 52.4702C12.6096 52.5164 12.857 52.5143 13.0968 52.4642C13.3366 52.4141 13.5641 52.3168 13.766 52.1781C13.968 52.0395 14.1404 51.8621 14.2733 51.6563C15.9752 49.0348 18.3053 46.8803 21.0519 45.3888C23.7985 43.8972 26.8744 43.116 29.9999 43.116C33.1253 43.116 36.2012 43.8972 38.9478 45.3888C41.6944 46.8803 44.0246 49.0348 45.7264 51.6563C45.8976 51.9162 46.1308 52.1294 46.4049 52.2767C46.679 52.424 46.9855 52.5007 47.2967 52.5C47.6559 52.5038 48.0076 52.3975 48.3046 52.1953C48.7207 51.9221 49.0129 51.4963 49.1181 51.0096C49.2233 50.523 49.1331 50.0145 48.8671 49.5938C46.2565 45.5894 42.4396 42.5195 37.9686 40.8281C40.1201 39.479 41.8938 37.6058 43.1236 35.384C44.3534 33.1622 44.999 30.6645 44.9999 28.125C45.0093 25.3328 44.2293 22.5947 42.7499 20.2266L53.0858 16.7813C53.4609 16.658 53.7876 16.4194 54.0191 16.0995C54.2507 15.7797 54.3753 15.3949 54.3753 15C54.3753 14.6051 54.2507 14.2203 54.0191 13.9005C53.7876 13.5806 53.4609 13.3421 53.0858 13.2188ZM29.9999 39.375C27.0162 39.375 24.1547 38.1898 22.0449 36.08C19.9351 33.9702 18.7499 31.1087 18.7499 28.125C18.7544 25.7244 19.5173 23.3866 20.9296 21.4453L29.4139 24.2813C29.7945 24.4065 30.2052 24.4065 30.5858 24.2813L39.0702 21.4453C40.4825 23.3866 41.2453 25.7244 41.2499 28.125C41.2499 31.1087 40.0646 33.9702 37.9548 36.08C35.845 38.1898 32.9836 39.375 29.9999 39.375Z" fill="#00A0E3"/>
</svg>

<svg width="60" height="60" fill="none" xmlns="http://www.w3.org/2000/svg"><path d="M53.086 13.219l-22.5-7.5a1.992 1.992 0 00-1.172 0l-22.477 7.5H6.89l-.234.117h-.023l-.235.14c0 .024-.023.024-.047.047l-.187.165-.164.187c0 .024-.024.024-.024.047l-.14.21c0 .024 0 .024-.024.048l-.093.21-.07.258v.07a.867.867 0 00-.024.282v18.75a1.875 1.875 0 103.75 0V17.602l7.875 2.625A14.812 14.812 0 0015 28.125a15 15 0 007.031 12.703 22.524 22.524 0 00-10.898 8.766 1.898 1.898 0 001.236 2.876 1.851 1.851 0 001.904-.814 18.75 18.75 0 0131.453 0 1.876 1.876 0 001.57.844c.36.004.712-.102 1.009-.305a1.898 1.898 0 00.562-2.601 22.523 22.523 0 00-10.898-8.766 15 15 0 007.03-12.703c.01-2.792-.77-5.53-2.25-7.898l10.337-3.446a1.875 1.875 0 000-3.562zM30 39.375a11.25 11.25 0 01-11.25-11.25 11.39 11.39 0 012.18-6.68l8.484 2.836c.38.126.791.126 1.172 0l8.484-2.836a11.391 11.391 0 012.18 6.68A11.25 11.25 0 0130 39.375z" fill="#00A0E3"/></svg>
